build/Karasa-Jaga/scalable/actions/media-playback-start-symbolic.svg

<svg height="16" width="16" xmlns="http://www.w3.org/2000/svg"><g fill="#bebebe"><path d="m8 .09375c-4.3621134 0-7.90625 3.5441366-7.90625 7.90625 0 4.362113 3.5441366 7.90625 7.90625 7.90625 4.362113 0 7.90625-3.544137 7.90625-7.90625 0-4.3621134-3.544137-7.90625-7.90625-7.90625zm0 1.6269531c3.464383 0 6.279297 2.8149133 6.279297 6.2792969 0 3.464383-2.814914 6.279297-6.279297 6.279297-3.4643836 0-6.2792969-2.814914-6.2792969-6.279297 0-3.4643836 2.8149133-6.2792969 6.2792969-6.2792969z"/><path d="m12.610169 5.220339-13.57683519 6.075878 1.52655325-14.7958235z" transform="matrix(.55486022 -.06404311 .05432772 .65408549 5.5622 5.43715)"/></g></svg>

<?xml version="1.0" encoding="UTF-8" standalone="no"?>
<!-- Created with Inkscape (http://www.inkscape.org/) -->

<svg
   xmlns:dc="http://purl.org/dc/elements/1.1/"
   xmlns:cc="http://creativecommons.org/ns#"
   xmlns:rdf="http://www.w3.org/1999/02/22-rdf-syntax-ns#"
   xmlns:svg="http://www.w3.org/2000/svg"
   xmlns="http://www.w3.org/2000/svg"
   xmlns:sodipodi="http://sodipodi.sourceforge.net/DTD/sodipodi-0.dtd"
   xmlns:inkscape="http://www.inkscape.org/namespaces/inkscape"
   id="svg7384"
   height="16"
   width="16"
   version="1.1"
   inkscape:version="0.92.2 (unknown)"
   sodipodi:docname="media-playback-start-symbolic.svg">
  <defs
     id="defs7527" />
  <sodipodi:namedview
     pagecolor="#ffffff"
     bordercolor="#666666"
     borderopacity="1"
     objecttolerance="10"
     gridtolerance="10"
     guidetolerance="10"
     inkscape:pageopacity="0"
     inkscape:pageshadow="2"
     inkscape:window-width="1366"
     inkscape:window-height="716"
     id="namedview7525"
     showgrid="false"
     inkscape:zoom="10.429825"
     inkscape:cx="-4.6657812"
     inkscape:cy="7.189733"
     inkscape:window-x="0"
     inkscape:window-y="27"
     inkscape:window-maximized="1"
     inkscape:current-layer="svg7384" />
  <metadata
     id="metadata90">
    <rdf:RDF>
      <cc:Work
         rdf:about="">
        <dc:format>image/svg+xml</dc:format>
        <dc:type
           rdf:resource="http://purl.org/dc/dcmitype/StillImage" />
        <dc:title>Gnome Symbolic Icon Theme</dc:title>
      </cc:Work>
    </rdf:RDF>
  </metadata>
  <title
     id="title9167">Gnome Symbolic Icon Theme</title>
  <g
     id="g819">
    <path
       id="path7529"
       d="M 8 0.09375 C 3.6378866 0.09375 0.09375 3.6378866 0.09375 8 C 0.09375 12.362113 3.6378866 15.90625 8 15.90625 C 12.362113 15.90625 15.90625 12.362113 15.90625 8 C 15.90625 3.6378866 12.362113 0.09375 8 0.09375 z M 8 1.7207031 C 11.464383 1.7207031 14.279297 4.5356164 14.279297 8 C 14.279297 11.464383 11.464383 14.279297 8 14.279297 C 4.5356164 14.279297 1.7207031 11.464383 1.7207031 8 C 1.7207031 4.5356164 4.5356164 1.7207031 8 1.7207031 z "
       style="fill:#bebebe;fill-opacity:1;stroke:none" />
    <path
       transform="matrix(0.55486022,-0.06404311,0.05432772,0.65408549,5.5621997,5.4371495)"
       inkscape:transform-center-y="-0.014701105"
       inkscape:transform-center-x="-1.1861261"
       d="M 12.610169,5.220339 -0.96666619,11.296217 0.55988706,-3.4996065 Z"
       inkscape:randomized="0"
       inkscape:rounded="0"
       inkscape:flatsided="true"
       sodipodi:arg2="1.1500084"
       sodipodi:arg1="0.10281083"
       sodipodi:r2="4.2938595"
       sodipodi:r1="8.587719"
       sodipodi:cy="4.3389831"
       sodipodi:cx="4.0677967"
       sodipodi:sides="3"
       id="path7534"
       style="fill:#bebebe;fill-opacity:1;stroke:none"
       sodipodi:type="star" />
  </g>
</svg>
